X:1
T:Shall We Gather by the River
M:4/4
L:1/8
K:C
 E2 E2 E3/2 D/2 E3/2 F/2| G4 E4| F2 F2 F3/2 G/2 F3/2 E/2| D4- G4| E2 E2 E3/2 D/2 E3/2 F/2|\
 G4 E2 EF| D2D-E F2E-D| C8| A2 A2 c3/2 B/2 c3/2 A/2| G4 E3 E| F3/2 E/2 F3/2 E/2 F3/2 E/2 F3/2- D/2|\
 E4 G4| A3/2 A/2 A3/2 A/2 c3/2- B/2 c3/2 A/2| G4 E2 E2| D2 D3/2 E/2 F2E-D|\
 C8|
